X:8097
T:John Carty's
R:Reel
S:
H:
N:Tommy & Siobhan Peoples, PJ King, Andrew Macnamara, Kevin Crawford etc
D:Maiden Voyage: Music from Pepper's Bar, Feakle, Co. Clare
Z:Adrian Scahill
M:4/4
L:1/8
K:G
cABA G3B|AEE2 GEDB|cABA g3e|d2Ac BGG2:||\
D3E G3A|BG (3Bcd edBe|dBde g3e|dBAc BGG2:||
